resources/svg/plant-fill.svg

<svg fill="currentColor" viewBox="0 0 24 24" xmlns="http://www.w3.org/2000/svg"><path d="M20.998 3V5C20.998 8.86599 17.864 12 13.998 12H12.998V13H17.998V20C17.998 21.1046 17.1026 22 15.998 22H7.99805C6.89348 22 5.99805 21.1046 5.99805 20V13H10.998V10C10.998 6.13401 14.1321 3 17.998 3H20.998ZM5.49805 2C8.02667 2 10.263 3.25136 11.6216 5.1686C10.6026 6.51084 9.99805 8.18482 9.99805 10V11H9.49805C5.35591 11 1.99805 7.64214 1.99805 3.5V2H5.49805Z"/></svg>

<svg xmlns="http://www.w3.org/2000/svg" viewBox="0 0 24 24" fill="currentColor">
    <g>
        <path fill="none" d="M0 0H24V24H0z"/>
        <path d="M21 3v2c0 3.866-3.134 7-7 7h-1v1h5v7c0 1.105-.895 2-2 2H8c-1.105 0-2-.895-2-2v-7h5v-3c0-3.866 3.134-7 7-7h3zM5.5 2c2.529 0 4.765 1.251 6.124 3.169C10.604 6.51 10 8.185 10 10v1h-.5C5.358 11 2 7.642 2 3.5V2h3.5z"/>
    </g>
</svg>
